img/icon/ref-3.svg

<svg width="33" height="34" viewBox="0 0 33 34" fill="none" xmlns="http://www.w3.org/2000/svg">
<path d="M7.74903 31.3158V21.2105C7.74903 20.2808 6.99314 19.5263 6.06178 19.5263H2.68726C1.75589 19.5263 1 20.2808 1 21.2105V31.3158C1 32.2455 1.75589 33 2.68726 33H6.06178C6.99314 33 7.74903 32.2455 7.74903 31.3158ZM7.74903 31.3158H10.2934C10.8452 31.3158 11.3935 31.3832 11.9284 31.5179L16.3996 32.6328C17.3698 32.8754 18.3804 32.8989 19.3607 32.7036L24.3044 31.7166C25.6104 31.4556 26.8117 30.8139 27.7532 29.8741L31.2509 26.3827C32.2497 25.3874 32.2497 23.7722 31.2509 22.7752C30.3515 21.8775 28.9275 21.7764 27.9101 22.5377L23.8337 25.5895C23.2499 26.0274 22.5395 26.2632 21.809 26.2632H17.8726H20.3782C21.7904 26.2632 22.9344 25.1213 22.9344 23.7116V23.2013C22.9344 22.0307 22.1363 21.0101 20.9991 20.7272L17.1319 19.7621C16.5025 19.6055 15.858 19.5263 15.2101 19.5263C13.646 19.5263 12.1157 19.9878 10.8148 20.8552L7.74903 22.8947M13.9362 14.4737H28.5597C30.112 14.4737 31.3707 13.2173 31.3707 11.6661V3.80758C31.3707 2.25642 30.112 1 28.558 1H13.9345C12.3822 1 11.1236 2.25642 11.1236 3.80758V11.6678C11.1236 13.2173 12.3822 14.4737 13.9362 14.4737ZM23.0373 5.9499C24.026 6.93684 24.026 8.53853 23.0373 9.52379C22.0485 10.5091 20.444 10.5107 19.4569 9.52379C18.4682 8.53684 18.4682 6.93516 19.4569 5.9499C20.4457 4.96463 22.0485 4.96463 23.0373 5.9499Z" stroke="url(#paint0_linear)" stroke-width="2" stroke-linecap="round" stroke-linejoin="round"/>
<defs>
<linearGradient id="paint0_linear" x1="1" y1="1" x2="1" y2="33" gradientUnits="userSpaceOnUse">
<stop stop-color="#5986FB"/>
<stop offset="1" stop-color="#2D4EF5"/>
</linearGradient>
</defs>
</svg>

<svg width="33" height="34" fill="none" xmlns="http://www.w3.org/2000/svg"><path d="M7.749 31.316V21.21c0-.93-.756-1.685-1.687-1.685H2.687c-.931 0-1.687.755-1.687 1.684v10.106C1 32.246 1.756 33 2.687 33h3.375c.931 0 1.687-.755 1.687-1.684zm0 0h2.544c.552 0 1.1.067 1.635.202l4.472 1.115c.97.242 1.98.266 2.96.07l4.944-.986a6.759 6.759 0 0 0 3.45-1.843l3.497-3.491a2.546 2.546 0 0 0 0-3.608 2.56 2.56 0 0 0-3.34-.237l-4.077 3.052a3.373 3.373 0 0 1-2.025.673h-3.936 2.505a2.553 2.553 0 0 0 2.556-2.551v-.51A2.55 2.55 0 0 0 21 20.726l-3.867-.965a7.923 7.923 0 0 0-6.317 1.093l-3.066 2.04m6.187-8.421H28.56a2.809 2.809 0 0 0 2.81-2.808V3.808A2.81 2.81 0 0 0 28.559 1H13.935a2.809 2.809 0 0 0-2.811 2.808v7.86a2.809 2.809 0 0 0 2.812 2.806zm9.101-8.524a2.524 2.524 0 0 1 0 3.574 2.536 2.536 0 0 1-3.58 0 2.524 2.524 0 0 1 0-3.574 2.538 2.538 0 0 1 3.58 0z" stroke="url(#paint0_linear)" stroke-width="2" stroke-linecap="round" stroke-linejoin="round"/><defs><linearGradient id="paint0_linear" x1="1" y1="1" x2="1" y2="33" gradientUnits="userSpaceOnUse"><stop stop-color="#5986FB"/><stop offset="1" stop-color="#2D4EF5"/></linearGradient></defs></svg>
